X:1
T:Shout and Sing
T: Bentley DeForest Ackley, 1920
T:Shout and Sing
T:Public Domain
T:Public Domain
C:Bentley DeForest Ackley, 1920
Z:Public Domain
%%score ( 1 2 ) ( 3 4 )
L:1/8
M:4/4
K:F
V:1 treble 
V:2 treble 
V:3 bass 
V:4 bass 
V:1
 C2 | [FA]2 [FA]2 [FB]2 [FA]2 | [Ec]2 [EG]2 [EG]2 [_EA]2 | [DB]3 [DB] [DF]2 [_DG]2 | %4
w: 1.~The|of God, Whose sac-|red bond, Nor life|nor death can se-|
w: 2.~If|in Christ, what joy|is ours, Thro’ faith|His smile be- hold-|
w: 3.~Yes,|in Christ, and He|in us, The hope|of end- less glo-|
w: 4.~To|ners now, we’ll glad-|ly tell His love|so free- ly flow-|
 [CA]2 [FA]4 [FA]2 | [FA]2 [FG]2 [FA]2 [F=B]2 | [Fd]2 [Ec]2 [EG]2 [CE]2 | [FG]3 [FG] [FA]2 [FG]2 | %8
w: ver, Thro’ grace|di- vine has made|us one, In Christ|the Lord for- ev-|
w: ing, We dwell|se- cure, our an-|chor sure, His arm|our souls en- fold-|
w: ry, We jour-|ney on while sweet-|er grows Re- demp-|tion’s grand old sto-|
w: ing, And help|them find the land|of song To which|we now are go-|
 [EG]2 [Ec]4 ||"^Refrain" [GB]2 | [FA]2 [FA]2 [FA]3 [Ac] | ([Bd][Ac])([^G=B][Ac]) [FA]2 [FA]2 | %12
w: er. *||||
w: ing. *||||
w: ry. *||||
w: ing. *||||
 [EG]2 [FA]2 [Ec]3 [GB] | [GB]2 [FA]4 [Ec]2 | [FA]2 [FA]2 [FA]3 [Ac] | %15
w: |||
w: |||
w: |||
w: |||
 ([Bd][Ac])([^G=B][Ac]) [Af]2 [FB]2 | (dc)(FB) [FA]3 [CF] | [CG]2 [CF]4 |] %18
w: |||
w: |||
w: |||
w: |||
V:2
 C2 | x8 | x8 | x8 | x8 | x8 | x8 | x8 | x6 || x2 | x8 | x8 | x8 | x8 | x8 | x8 | F2 F2 x4 | x6 |] %18
w: love||||||||||||||||||
w: one||||||||||||||||||
w: one||||||||||||||||||
w: sin-||||||||||||||||||
V:3
 [F,A,]2 | [F,C]2 [F,C]2 [F,D]2 [F,C]2 | [C,C]2 [C,C]2 [C,C]2 [F,C]2 | %3
w: ~|~ ~ ~ ~|~ ~ ~ ~|
 [B,,B,]3 [B,,B,] [B,,B,]2 [B,,B,]2 | [F,C]2 [F,C]4 [F,C]2 | [D,=B,]2 [G,B,]2 [G,C]2 [G,D]2 | %6
w: ~ ~ ~ ~|~ ~ ~|~ ~ ~ ~|
 [C,C]2 [C,G,]2 [C,C]2 [C,G,]2 | [D,=B,]3 [D,B,] [G,C]2 [G,B,]2 | [C,C]2 [C,G,]4 || [C,C]2 | %10
w: ~ ~ ~ ~|~ ~ ~ ~|~ ~|Then|
 [F,C]2 [F,C]2 [F,C]3 [F,F] | [F,F]2 [F,F]2 [F,C]2 [F,C]2 | [C,C]2 [C,C]2 [C,G,]3 [C,C] | %13
w: shout and sing, Though|time may bring Its|clouds of care and|
 [F,C]2 [F,C]4 [C,C]2 | [F,C]2 [F,C]2 [F,C]3 [F,F] | [F,F]2 [F,F]2 [F,C]2 [_D,^G,]2 | %16
w: sor- row; The|gold- en ray they|veil to- day Will|
 [C,A,]2 (A,D) [C,C]3 [C,A,] | [C,B,]2 [F,A,]4 |] %18
w: bright- er * shine to-|row. *|
V:4
 x2 | x8 | x8 | x8 | x8 | x8 | x8 | x8 | x6 || x2 | x8 | x8 | x8 | x8 | x8 | x8 | x2 C,2 x4 | x6 |] %18
w: ||||||||||||||||mor-||

